X: 42573
T: When The Cat Is Out
R: jig
M: 6/8
K: Gmajor
FAF DEF|GFG BAG|FAF DEF|G2G EFG|
FAF DEF|GFG BAG|B2d cAF|AGF G2G:|
d2g ecA|Bcd e2e|d2g ecA|BAG A2A|
d2g gfg|aba g2e|fge dBG|AGF G2G:|
F2A ABA|BdB cBA|F2A ABc|dcB AFG|
F2A ABA|BdB cBA|B2d cAF|AGF G2G:|

